X: 01
T: the Toy
%R: jig
B: "Twenty Four Country Dances with Figures for the Year 1813", Button & Whitaker, p.1 #1
F: http://www.vwml.org/browse/browse-collections-dance-tune-books/browse-button1813
Z: 2015 John Chambers <jc:trillian.mit.edu>
N: The Figures by Mr WILSON.
M: 6/8
L: 1/8
K: A
% - - - - - - - - - - - - - - - - - - - - - - - - - - - - -
e |\
aec cBc | edB B2c | A>BA cec | cBz z2e |\
aec cBc | edB B2c | AGA Bed | cAz z2 :|
c |\
B>cB B<ed | c>dc c<ec | B>cB B<dc | cez z2e |\
afe ^dcB | efg fga | gee B^dd | ^dez z2e |
a>ec c2c | e>dB B2c | A>BA cec | cBz z2e |\
c'ba gfg | agf edc | Bdf AGB | BAz z2 |]
% - - - - - - - - - - Dance description - - - - - - - - - -
%%text   SINGLE FIGURE (1st strain repeated 2d play'd straight thro')
%%begintext align
%% The three Ladies lead round the three Gent: |: the three
%% Gent: lead round the three Ladies |: whole poussette & swing corners .|
%%endtext
%%center OR THUS
%%begintext align
%% Hey contrary sides .| hey on your own sides |: swing round two Cu:
%% cross over one Couple and half figure round the top Couple .| .
%%endtext
